communes/1143.svg

<?xml version="1.0" encoding="UTF-8"?>
<svg width="520" height="585" version="1.1" viewBox="0 0 100 112.5" xmlns="http://www.w3.org/2000/svg" xmlns:cc="http://creativecommons.org/ns#" xmlns:dc="http://purl.org/dc/elements/1.1/" xmlns:rdf="http://www.w3.org/1999/02/22-rdf-syntax-ns#" xmlns:xlink="http://www.w3.org/1999/xlink">
<metadata>
<rdf:RDF>
<cc:Work rdf:about="">
<dc:format>image/svg+xml</dc:format>
<dc:type rdf:resource="http://purl.org/dc/dcmitype/StillImage"/>
</cc:Work>
</rdf:RDF>
</metadata>
<title>Wappen von Schötz</title>
<desc>Wappen der Schweizer Gemeinde Schötz, Kanton Luzern</desc>
<g fill="#fff" stroke="#000">
<path d="m1 1v61.5a49 49 0 0 0 98 0v-61.5z" fill="#0056ad" stroke-width="2"/>
<path d="m46 20a5 5 0 1 1 0-8 5 5 0 1 1 8 0 5 5 0 1 1 0 8v26h26a5 5 0 1 1 8 0 5 5 0 1 1 0 8 5 5 0 1 1-8 0h-26v38a5 5 0 1 1 0 8 5 5 0 1 1-8 0 5 5 0 1 1 0-8v-38h-26a5 5 0 1 1-8 0 5 5 0 1 1 0-8 5 5 0 1 1 8 0h26z"/>
<path id="a" d="m15.5 14 3.5-8 3.5 8 8.7-1-5.2 7 5.2 7-8.7-1-3.5 8-3.5-8-8.7 1 5.2-7-5.2-7z"/>
<use x="62" xlink:href="#a"/>
<use x="5.5" y="59.5" xlink:href="#a"/>
<use x="56.5" y="59.5" xlink:href="#a"/>
</g>
</svg>

<?xml version="1.0" encoding="UTF-8" standalone="no"?>
<svg
   xmlns:dc="http://purl.org/dc/elements/1.1/"
   xmlns:cc="http://creativecommons.org/ns#"
   xmlns:rdf="http://www.w3.org/1999/02/22-rdf-syntax-ns#"
   xmlns:svg="http://www.w3.org/2000/svg"
   xmlns="http://www.w3.org/2000/svg"
   xmlns:xlink="http://www.w3.org/1999/xlink"
   xmlns:sodipodi="http://sodipodi.sourceforge.net/DTD/sodipodi-0.dtd"
   xmlns:inkscape="http://www.inkscape.org/namespaces/inkscape"
   version="1.1"
   width="520"
   height="585"
   viewBox="0,0 100,112.5"
   id="svg19"
   sodipodi:docname="1143.svg">
  <metadata
     id="metadata25">
    <rdf:RDF>
      <cc:Work
         rdf:about="">
        <dc:format>image/svg+xml</dc:format>
        <dc:type
           rdf:resource="http://purl.org/dc/dcmitype/StillImage" />
      </cc:Work>
    </rdf:RDF>
  </metadata>
  <defs
     id="defs23" />
  <sodipodi:namedview
     pagecolor="#ffffff"
     bordercolor="#666666"
     borderopacity="1"
     objecttolerance="10"
     gridtolerance="10"
     guidetolerance="10"
     inkscape:pageopacity="0"
     inkscape:pageshadow="2"
     inkscape:window-width="640"
     inkscape:window-height="480"
     id="namedview21" />
  <title
     id="title2">Wappen von Schötz</title>
  <desc
     id="desc4">Wappen der Schweizer Gemeinde Schötz, Kanton Luzern</desc>
  <g
     stroke="black"
     stroke-width="1"
     fill="white"
     id="g17">
    <path
       d="M 1,1 V 62.5 a 49,49 0 0,0 98,0 V 1 z"
       stroke-width="2"
       fill="#0056ad"
       id="path6" />
    <path
       d="M 46,20 a 5,5 0 1,1 0,-8 5,5 0 1,1 8,0 5,5 0 1,1 0,8 v 26 h 26 a 5,5 0 1,1 8,0 5,5 0 1,1 0,8 5,5 0 1,1 -8,0 H 54 V 92 a 5,5 0 1,1 0,8 5,5 0 1,1 -8,0 5,5 0 1,1 0,-8 V 54 H 20 a 5,5 0 1,1 -8,0 5,5 0 1,1 0,-8 5,5 0 1,1 8,0 h 26 z"
       id="path8" />
    <path
       id="stern"
       d="M 15.5,14 L 19,6 22.5,14 31.2,13 26,20 31.2,27 22.5,26 19,34 15.5,26 6.8,27 12,20 6.8,13 z" />
    <use
       x="62"
       xlink:href="#stern"
       id="use11" />
    <use
       x="5.5"
       y="59.5"
       xlink:href="#stern"
       id="use13" />
    <use
       x="56.5"
       y="59.5"
       xlink:href="#stern"
       id="use15" />
  </g>
</svg>
